X:3297
L:1/8
M:3/4
K:C
"C" a2 cg ec |"G7" B2 de fa | g2 df ed |"C" ce gc' eg | a2 cg ec |"G7" B2 de fa |"_*" g2 df ed | 
"C" c2 z2 z2 ::"G7" g2 ^fg ab |"C" c'e gc' ba |"G7" gb fa B2 |"C" ce gc' e2 |"G7" g2 ^fg ab | 
"C" .c'2 .b2 .a2 |"G7" g2 ag fd |"C" c2 z2 z2 ::[K:F]"F" c2 fa gf |"C7" eg cg e2 | d2 cc' ce | 
"F" fa ca f2 | c2 fa gf |"C7" eg cg e2 | d2 cb ce |"F" f2 z2 z2 ::"C7" c2 =Bc de |"F" fA cf a2 | 
"Dm" fa"C" eg"C7" ce |"F" fa cf A2 |"C7" c2 =Bc de |"F" fe fg ab |"C7" c'2 eg be |"F" f2 z2 z2 :|

